X: 753
P: Longways for as many as will
M: 6/4
L: 1/4
K: G
V: 1
gdB ecA | afd bag | fga dgf | g2G G2 :|
|: B |\
ceg gec | Bdg gdB | cBc Aag | f2d d2c |\
V: 2 clef=bass middle=d
g2d B2A | G3 B3 | A3 ^c3 | d3 c3 |\
|: g |\
e3 c3 | g3 B3 | A3 ^c3 | d3 f3 |\
g3 a3 | b3 g3 | BAG d3 | G3- G2 :|

